X: 23203
T: Leading Role
R: reel
M: 4/4
K: Gmajor
|B2 AG EDBA|G2 BD EDGA|B2 AG EDGA|BGdB BAAG|
B2 AG EDBA|G2 BD EDGA|B2 AG EDBA|AGBD G3A:|
dG3 dGBd|e2 dB ABGA|BEGE BEGA|BGdB A4|
Bded dGBd|e2 dB ABGA|B2 AG EDBA|AGBD G3B:|
dG3 dGBd|e2 dB ABGA|BEGE BEGA|Bdgf e4|
Bd3 dggf|e2 dB ABGA|B2 AG EDBA|AGBD G3B:|

